resources/svg/mood-sad-o.svg

<svg xmlns="http://www.w3.org/2000/svg" viewBox="0 0 15 15" fill="none"><path d="M4.1 9.7L3.8 10.1L4.6 10.7L4.9 10.3L4.1 9.7ZM10.1 10.3L10.4 10.7L11.2 10.1L10.9 9.7L10.1 10.3ZM7.5 14C3.91015 14 1 11.0899 1 7.5H0C0 11.6421 3.35786 15 7.5 15V14ZM14 7.5C14 11.0899 11.0899 14 7.5 14V15C11.6421 15 15 11.6421 15 7.5H14ZM7.5 1C11.0899 1 14 3.91015 14 7.5H15C15 3.35786 11.6421 0 7.5 0V1ZM7.5 0C3.35786 0 0 3.35786 0 7.5H1C1 3.91015 3.91015 1 7.5 1V0ZM4 6H5V5H4V6ZM10 6H11V5H10V6ZM10.9 9.7C9.2 7.43333 5.8 7.43333 4.1 9.7L4.9 10.3C6.2 8.56667 8.8 8.56667 10.1 10.3L10.9 9.7Z" fill="black"/></svg>

<svg xmlns="http://www.w3.org/2000/svg" viewBox="0 0 15 15" fill="none"><path d="M4.1 9.7l-.3.4.8.6.3-.4-.8-.6zm6 .6l.3.4.8-.6-.3-.4-.8.6zM7.5 14A6.5 6.5 0 011 7.5H0A7.5 7.5 0 007.5 15v-1zM14 7.5A6.5 6.5 0 017.5 14v1A7.5 7.5 0 0015 7.5h-1zM7.5 1A6.5 6.5 0 0114 7.5h1A7.5 7.5 0 007.5 0v1zm0-1A7.5 7.5 0 000 7.5h1A6.5 6.5 0 017.5 1V0zM4 6h1V5H4v1zm6 0h1V5h-1v1zm.9 3.7c-1.7-2.267-5.1-2.267-6.8 0l.8.6a3.25 3.25 0 015.2 0l.8-.6z" fill="currentColor"/></svg>
